src/icons/typescript-def.svg

<svg
  clip-rule="evenodd"
  fill-rule="evenodd"
  stroke-linejoin="round"
  stroke-miterlimit="1.414"
  viewBox="0 0 500 500"
  xmlns="http://www.w3.org/2000/svg"
>
  <g fill="#0288d1">
    <path d="M454 454H46V46h408zM66 66v368h368V66z" />
    <path
      d="M349.8 237.85c-2.347-.007-4.503.052-6.114.205-12.593 1.095-24.356 6.595-32.407 15.153-4.033 4.288-7.687 10.436-9.472 15.939-1.967 6.065-1.953 5.949-1.943 15.45.01 12.139.627 15.146 4.757 23.219 4.153 8.118 10.48 14.749 19.608 20.55 4 2.542 14.245 7.65 22.611 11.275 18.211 7.889 23.972 11.528 26.645 16.835l1.104 2.19v4.59c0 4.427-.018 4.655-.918 6.48-2.054 4.224-6.903 7.683-13.112 9.354-2.348.63-3.424.72-8.671.722-5.136 0-6.383-.106-8.737-.692-4.11-1.04-7.573-2.478-10.28-4.271-3.315-2.195-9.832-8.775-12.483-12.603-1.17-1.69-2.345-3.075-2.609-3.075-.436 0-22.907 12.847-26.829 15.338-1.322.84-1.657 1.223-1.657 1.896 0 1.396 5.25 9.332 9.363 14.152 8.379 9.822 25.182 18.481 40.066 20.65 5.884.856 15.657 1.133 22.485.63 4.474-.328 8.996-1.177 13.855-2.602 17.58-5.157 29.575-16.112 34.02-31.074 1.813-6.103 2.546-13.61 1.947-19.943-1.228-12.994-5.222-22.18-13.106-30.137-7.321-7.388-17.372-13.341-37.209-22.04-17.199-7.54-21.688-10.47-24.167-15.767-2.14-4.573-1.732-10.867.96-14.778 3.15-4.578 9.58-6.84 16.751-5.89 6.668.88 10.98 3.523 15.205 9.313 2.194 3.006 3.717 4.572 4.447 4.572.72 0 3.822-1.914 13.451-8.307 9.802-6.506 12.884-8.714 13.095-9.38.328-1.031-1.208-3.445-5.702-8.958-9.023-11.067-19.63-16.942-33.25-18.416-3.344-.363-7.79-.564-11.702-.576zm-108.35 1.878c-8.085-.005-17.321 0-27.583.01-53.219.052-65.571.14-65.904.483-.324.324-.408 3.587-.408 15.766v15.357l24.2.088 24.202.087.005 68.503c.002 37.677.087 68.822.205 69.212l.182.712h17.588c15.747 0 17.607-.035 17.779-.498.105-.275.182-31.42.182-69.212v-68.714l24.201-.087 24.201-.088v-15.542c0-13.47-.052-15.58-.473-15.842-.222-.14-14.127-.224-38.383-.236z"
    />
  </g>
</svg>

<svg viewBox="0 0 500 500" xmlns="http://www.w3.org/2000/svg">
  <path d="M454 454H46V46H454V454ZM66 66V434H434V66H66Z" fill="#0288D1" />
  <path
    d="M349.8 237.85C347.453 237.843 345.297 237.902 343.686 238.055C331.093 239.15 319.33 244.65 311.279 253.208C307.246 257.496 303.592 263.644 301.807 269.147C299.84 275.212 299.854 275.096 299.864 284.597C299.874 296.736 300.491 299.743 304.621 307.816C308.774 315.934 315.101 322.565 324.229 328.366C328.229 330.908 338.474 336.016 346.84 339.641C365.051 347.53 370.812 351.169 373.485 356.476L374.589 358.666V363.256C374.589 367.683 374.571 367.911 373.671 369.736C371.617 373.96 366.768 377.419 360.559 379.09C358.211 379.72 357.135 379.81 351.888 379.812C346.752 379.812 345.505 379.706 343.151 379.12C339.041 378.08 335.578 376.642 332.871 374.849C329.556 372.654 323.039 366.074 320.388 362.246C319.218 360.556 318.043 359.171 317.779 359.171C317.343 359.171 294.872 372.018 290.95 374.509C289.628 375.349 289.293 375.732 289.293 376.405C289.293 377.801 294.543 385.737 298.656 390.557C307.035 400.379 323.838 409.038 338.722 411.207C344.606 412.063 354.379 412.34 361.207 411.837C365.681 411.509 370.203 410.66 375.062 409.235C392.642 404.078 404.637 393.123 409.082 378.161C410.895 372.058 411.628 364.551 411.029 358.218C409.801 345.224 405.807 336.038 397.923 328.081C390.602 320.693 380.551 314.74 360.714 306.041C343.515 298.501 339.026 295.571 336.547 290.274C334.407 285.701 334.815 279.407 337.507 275.496C340.657 270.918 347.087 268.656 354.258 269.606C360.926 270.486 365.238 273.129 369.463 278.919C371.657 281.925 373.18 283.491 373.91 283.491C374.63 283.491 377.732 281.577 387.361 275.184C397.163 268.678 400.245 266.47 400.456 265.804C400.784 264.773 399.248 262.359 394.754 256.846C385.731 245.779 375.124 239.904 361.504 238.43C358.16 238.067 353.714 237.866 349.802 237.854L349.8 237.85ZM241.45 239.728C233.365 239.723 224.129 239.728 213.867 239.738C160.648 239.79 148.296 239.878 147.963 240.221C147.639 240.545 147.555 243.808 147.555 255.987V271.344L171.755 271.432L195.957 271.519L195.962 340.022C195.964 377.699 196.049 408.844 196.167 409.234L196.349 409.946H213.937C229.684 409.946 231.544 409.911 231.716 409.448C231.821 409.173 231.898 378.028 231.898 340.236V271.522L256.099 271.435L280.3 271.347V255.805C280.3 242.335 280.248 240.225 279.827 239.963C279.605 239.823 265.7 239.739 241.444 239.727L241.45 239.728Z"
    fill="#0288D1"
  />
</svg>
